resources/svg/signal-wifi-2-line.svg

<svg fill="currentColor" viewBox="0 0 24 24" xmlns="http://www.w3.org/2000/svg"><path d="M12.001 3C16.2854 3 20.2201 4.49683 23.3108 6.99607L12.001 21L0.69043 6.99671C3.78127 4.49709 7.71632 3 12.001 3ZM12.001 12C10.5805 12 9.23687 12.3291 8.04217 12.9152L12.0009 17.8169L15.9594 12.915C14.7648 12.329 13.4213 12 12.001 12ZM12.001 5C8.97344 5 6.07837 5.84185 3.58046 7.39179L6.759 11.327C8.31734 10.4807 10.103 10 12.001 10C13.8988 10 15.6843 10.4806 17.2425 11.3267L20.4208 7.39132C17.9231 5.84167 15.0283 5 12.001 5Z"/></svg>

<svg xmlns="http://www.w3.org/2000/svg" viewBox="0 0 24 24" fill="currentColor">
    <g>
        <path fill="none" d="M0 0H24V24H0z"/>
        <path d="M12 3c4.284 0 8.22 1.497 11.31 3.996L12 21 .69 6.997C3.78 4.497 7.714 3 12 3zm0 9c-1.42 0-2.764.33-3.959.915L12 17.817l3.958-4.902C14.764 12.329 13.42 12 12 12zm0-7c-3.028 0-5.923.842-8.42 2.392l3.178 3.935C8.316 10.481 10.102 10 12 10c1.898 0 3.683.48 5.241 1.327L20.42 7.39C17.922 5.841 15.027 5 12 5z"/>
    </g>
</svg>
